X: 12369
T: Famous Ballymote, The
R: reel
M: 4/4
K: Amixolydian
cAeA ceef|gefd BcdB|cAeA ceef|gedB BA A2:|
cAce a2 a/a/a|gefd BcdB|cAce a2 ga|gedB BA AB:|

